src/icons/solid/symbols/link.svg

<svg width="24" height="24" viewBox="0 0 24 24" fill="none" xmlns="http://www.w3.org/2000/svg">
<g clip-path="url(#clip0_4923_329)">
<path d="M7.31934 6.5C8.73327 6.50006 10.0785 7.16769 11.0146 8.34082C11.3754 8.78208 11.3372 9.46015 10.9375 9.8584C10.5378 10.2565 9.92337 10.2133 9.5625 9.77246C9.03224 9.10647 8.27868 8.71439 7.47949 8.65918L7.31934 8.65234H5.9834C4.30609 8.65234 2.9502 10.1595 2.9502 12C2.9502 13.8405 4.31585 15.3477 5.9834 15.3477H7.31934C8.17742 15.3476 8.98719 14.9379 9.5625 14.2275C9.92337 13.7867 10.5378 13.7435 10.9375 14.1416C11.3372 14.5399 11.3754 15.2179 11.0146 15.6592C10.0785 16.8215 8.73327 17.4892 7.31934 17.5H5.99316C3.23341 17.5 1 15.0352 1 12C1 8.96478 3.2334 6.5 5.9834 6.5H7.31934Z" fill="#3C3B44"/>
<path d="M18.0166 6.5C20.7666 6.5 23 8.96478 23 12C23 15.0352 20.7666 17.5 18.0166 17.5H16.6807C15.2667 17.5 13.9205 16.8216 12.9844 15.6592C12.6239 15.2179 12.6628 14.5397 13.0625 14.1416C13.4622 13.7435 14.0766 13.7866 14.4375 14.2275C15.0031 14.9379 15.8225 15.3369 16.6807 15.3477H18.0166C19.6939 15.3477 21.0498 13.8405 21.0498 12C21.0498 10.1595 19.6842 8.65234 18.0166 8.65234H16.6807C15.8225 8.65234 15.0129 9.06211 14.4375 9.76172C14.0766 10.2026 13.4622 10.2457 13.0625 9.84766C12.6628 9.44953 12.6239 8.77138 12.9844 8.33008C13.9205 7.16765 15.2667 6.5 16.6807 6.5H18.0166Z" fill="#3C3B44"/>
<path d="M16.6807 10.9238C17.217 10.9238 17.6562 11.408 17.6562 12C17.6561 12.5918 17.2169 13.0762 16.6807 13.0762H7.31934C6.78309 13.0762 6.34392 12.5918 6.34375 12C6.34375 11.408 6.78299 10.9238 7.31934 10.9238H16.6807Z" fill="#3C3B44"/>
</g>
<defs>
<clipPath id="clip0_4923_329">
<rect width="24" height="24" fill="white"/>
</clipPath>
</defs>
</svg>

<svg xmlns="http://www.w3.org/2000/svg" width="24" height="24" fill="none" viewBox="0 0 24 24"><g fill="currentColor" clip-path="url(#a)"><path d="M7.32 6.5c1.413 0 2.758.668 3.695 1.84.36.442.322 1.12-.078 1.518-.4.399-1.014.355-1.374-.086A2.92 2.92 0 0 0 7.479 8.66l-.16-.007H5.983C4.306 8.652 2.95 10.16 2.95 12s1.366 3.348 3.033 3.348H7.32c.858 0 1.668-.41 2.244-1.12.36-.441.975-.485 1.374-.086.4.398.438 1.076.078 1.517-.937 1.162-2.282 1.83-3.696 1.841H5.993C3.233 17.5 1 15.035 1 12s2.233-5.5 4.983-5.5zm10.697 0C20.767 6.5 23 8.965 23 12s-2.233 5.5-4.983 5.5H16.68c-1.414 0-2.76-.678-3.697-1.84a1.154 1.154 0 0 1 .079-1.518c.4-.399 1.014-.355 1.374.085a2.91 2.91 0 0 0 2.244 1.12h1.336c1.677 0 3.033-1.506 3.033-3.347s-1.366-3.348-3.033-3.348H16.68c-.859 0-1.668.41-2.244 1.11-.36.44-.975.484-1.374.086a1.154 1.154 0 0 1-.079-1.518c.937-1.162 2.283-1.83 3.697-1.83z"/><path d="M16.68 10.924c.537 0 .976.484.976 1.076s-.44 1.076-.975 1.076H7.319c-.536 0-.975-.484-.975-1.076s.439-1.076.975-1.076z"/></g><defs><clipPath id="a"><path fill="currentColor" d="M0 0h24v24H0z"/></clipPath></defs></svg>
